X:1
T:E minor            Daniel Read, 1793
T: 
T:Isaac Watts, 1717 (Psalm 51, Part 1)              88. 88. (L. M.)
T:Supplication
T:Transcribed from The Columbian Harmonist, 1793.
%%score [ 1 2 3 4 ]
L:1/8
Q:1/4=90
M:2/2
K:G
V:1 treble nm="Voice"
V:2 treble nm="Voice"
V:3 treble-8 nm="Tenor"
V:4 bass nm="Bass"
V:1
"^1.  O    wash ___________   my   soul  from   eve     –       ry  sin,  And  make my guil–ty con–science  clean;                                                    Here\n2. Yet   save  ___________   a       trembling    sin    –   ner, Lord, Whose hope, still hovering round thy word,                                                 Would" B4 | %1
 (B3 c B3 A | d4) A4 | B4 G4 | B6 B2 | B4 B4 | B2 B2 c2 B2 | A4 A4 | B6 z2 | z8 | z4 z2 G2 | %11
"^1. on my heart, Here on my heart the bur –den       lies,                                    And     past    of –fen – ses     pain                   my     eyes.                And \n2. light on some, Would light on some sweet promise there,                           Some   sure   sup–port   a  –  gainst                 des  –  pair.               Some" B2 G2 E2 B2 | %12
 e2 B2 d2 e2 | d4 c4 | B6 z2 | z4 z2 d2 | B3 A Bc dB | G6 G2 | B6 g2 | %19
"^1.  past  of–fen–ses    pain   my  eyes. And  past __________   of   –   fen             –           ses          pain                      my    eyes.\n2.  sure  support  a– gainst  des –pair. Some sure __________  sup  –  port _________  a    –     gainst                    des – pair." f2 d2 e2 B2 | %20
 G>A Bc d2 e2 | (B>cBA G2) EF | (G3 A B2) c2 | B6 B2 | B8 |] %25
V:2
"^1.  O    wash ___________   my   soul   from  eve      –       ry  sin,  And  make my guil – ty  conscience  clean; \n2. Yet   save  ___________    a       trembling   sin    –    ner, Lord, Whose hope, still hovering round thy word," E4 | %1
 (E8 | F4) F4 | G4 G4 | D6 F2 | E4 G4 | F2 E2 D2 E2 | F4 F4 | F6 z2 | z8 | z8 | %11
 z4 z2"^1.  Here on my heart the bur – den         lies,  And past  of – fen– ses     pain  my  eyes. And   past _______  of   –  fen        –         ses  \n2. Would light on some sweet promise  there, Some sure support a – gainst  des –pair. Some  sure ______   sup –  port                   a  –" G2 | %12
 B2 G2 F2 E2 | F4 E4 | D6 G2 | E3 D EF GE | D2 E2 E2 D2 | (E3 F G2) G2 | F6 F2 | %19
"^1.  pain _____ my   eyes. _______   And   past                            of    –    fen             –            ses        pain _______    my   eyes.\n2. – gainst ___ des – pair. _______   Some sure                           sup   –   port                           a    –    gainst ______   des – pair." (F3 G A2) B2 | %20
 (B>cBA G2) E2 | E6 E2 | F6 A2 | (G2 F2 E2) D2 | E8 |] %25
V:3
"^1.  O    wash ___________   my   soul   from  eve     –       ry  sin, And make my  guil – ty   conscience  clean;                      Here on my heart the\n2. Yet   save  ___________   a       trembling    sin    –   ner, Lord, Whose hope, still hovering round thy word,                  Would light on some sweet" E4 | %1
 (B3 A B2 cB | A4) (d2 c2) | B4 e4 | (f3 gfe) d2 | e4 e4 | f2 g2 f2 e2 | d4 c4 | B6 z2 | z4 z2 G2 | %10
 B2 G2 E2 d2 | %11
"^1.  burden lies, Here on           my heart the burden lies,                                                                                                                  And      past   of – fen – ses\n2. promise there, Would light on some sweet promise  there,                                                                                                      Some    sure   sup–port   a –" e2 fe d2 g2 | %12
 B6 A2 | d2 B2 cB AG | F6 z2 | z8 | z8 | z4 z2 d2 | B3 A Bc dB | %19
"^1.  pain               my   eyes.                   And   past ___________ of    –   fen             –             ses        pain _______    my   eyes.\n2.  –gainst         des  – pair.                   Some sure ___________ sup  –  port __________  a    –   gainst _______  des – pair." A6 G2 | %20
 B6 B2 | (e4 dc) Bc | (d3 c B2) A2 | (B>cBA G2) F2 | E8 |] %25
V:4
 E,4 | (E,3 F, E,3 B,, | D,4) D,4 | G,4 E,4 | B,6 B,,2 | E,4 E,4 | D,2 E,2 F,2 G,2 | F,4 F,4 | %8
 B,,6"^1. Here on my heart the bur   –    den\n2. Would light on some sweet promise" G,2 | %9
 B,2 G,2 E,2 E,2 | E,6 E,2 | %11
"^1.  lies,           Here on my heart the bur    –    den    lies,                                                                             And     past   of – fen – ses   pain,               And \n2.  there,       Would light on some sweet promise there,                                                                           Some  sure   sup–port   a – gainst,             Some" B,,6 E,2 | %12
 E,2 E,2 B,,2 C,2 | D,4 A,,4 | B,,6 z2 | z8 | z4 z2 G,2 | E,3 D, E,F, G,E, | B,,6 B,,2 | %19
"^1. past  of – fen –ses  pain   my  eyes. And past __________   of    –    fen             –             ses         pain                     my    eyes.\n2. sure sup–port   a–gainst   des–pair. Some sure _________    sup  – port __________    a    –    gainst                   des – pair." D,2 D,2 D,2 E,2 | %20
 B,,2 B,,2 B,,2 E,2 | %21
"^___________________________________________\nEdited by B. C. Johnston, 2017\nMeasure 20, Counter: last note changed from A to B, to match Treble." (E,3 F, G,2) A,2 | %22
 (B,>CB,A, G,2) F,E, | B,,6 B,,2 | E,8 |] %25

